aces_1.2/config.ocio
ocio_profile_version: 1

search_path: luts:transforms
strictparsing: true
luma: [0.2126, 0.7152, 0.0722]

description: Modified ACES config for rendering in Sharp RGB color space


roles:
  color_picking: Output - Rec. 709
  color_timing: ACES - ACEScct
  compositing_linear: ACES - ACEScg
  compositing_log: ACES - ACEScct
  data: Utility - Raw
  default: Sharp RGB
  # default: ACES - ACES2065-1
  matte_paint: Utility - sRGB - Texture
  reference: ACES - ACES2065-1
  rendering: Sharp RGB
  # rendering: ACES - ACEScg
  scene_linear: Sharp RGB
  # scene_linear: ACES - ACEScg
  texture_paint: Utility - sRGB - Texture


displays:
  ACES:
    - !<View> {name: sRGB, colorspace: Output - sRGB}
    - !<View> {name: Rec. 709, colorspace: Output - Rec. 709}
    - !<View> {name: Raw, colorspace: Utility - Raw}


active_displays: [ACES]
active_views: [Rec. 709, sRGB, Raw]


colorspaces:
  - !<ColorSpace>
    name: Sharp RGB
    family: SceneReferred
    bitdepth: 32f
    isdata: false
    to_reference: !<FileTransform> {src: SharpRGB_to_AP0_CAT16.spimtx}
    allocation: lg2
    allocationvars: [-8, 5, 0.00390625]

  - !<ColorSpace>
    name: ACES - ACES2065-1
    family: ACES
    bitdepth: 32f
    description: |
      The Academy Color Encoding System reference color space
    isdata: false
    allocation: lg2
    allocationvars: [-8, 5, 0.00390625]

  - !<ColorSpace>
    name: ACES - ACEScc
    family: ACES
    bitdepth: 32f
    description: |
      The ACEScc color space

      ACES Transform ID : ACEScsc.Academy.ACEScc_to_ACES
    isdata: false
    allocation: uniform
    allocationvars: [-0.3584, 1.468]
    to_reference: !<GroupTransform>
      children:
        - !<FileTransform> {src: ACEScc_to_linear.spi1d, interpolation: linear}
        - !<MatrixTransform> {matrix: [0.695452, 0.140679, 0.163869, 0, 0.0447946, 0.859671, 0.0955343, 0, -0.00552588, 0.00402521, 1.0015, 0, 0, 0, 0, 1]}

  - !<ColorSpace>
    name: ACES - ACEScct
    family: ACES
    bitdepth: 32f
    description: |
      The ACEScct color space

      ACES Transform ID : ACEScsc.Academy.ACEScct_to_ACES
    isdata: false
    allocation: uniform
    allocationvars: [-0.249136, 1.468]
    to_reference: !<GroupTransform>
      children:
        - !<FileTransform> {src: ACEScct_to_linear.spi1d, interpolation: linear}
        - !<MatrixTransform> {matrix: [0.695452, 0.140679, 0.163869, 0, 0.0447946, 0.859671, 0.0955343, 0, -0.00552588, 0.00402521, 1.0015, 0, 0, 0, 0, 1]}

  - !<ColorSpace>
    name: ACES - ACEScg
    family: ACES
    bitdepth: 32f
    description: |
      The ACEScg color space

      ACES Transform ID : ACEScsc.Academy.ACEScg_to_ACES
    isdata: false
    allocation: lg2
    allocationvars: [-8, 5, 0.00390625]
    to_reference: !<MatrixTransform> {matrix: [0.695452, 0.140679, 0.163869, 0, 0.0447946, 0.859671, 0.0955343, 0, -0.00552588, 0.00402521, 1.0015, 0, 0, 0, 0, 1]}

  - !<ColorSpace>
    name: Output - Rec. 709
    family: Output
    bitdepth: 32f
    description: |
      ACES 1.0 Output - Rec. 709 Output Transform

      ACES Transform ID : urn:ampas:aces:transformId:v1.5:ODT.Academy.Rec709_100nits_dim.a1.0.3
    isdata: false
    allocation: uniform
    allocationvars: [0, 1]
    to_reference: !<GroupTransform>
      children:
        - !<FileTransform> {src: InvRRT.Rec.709.Log2_48_nits_Shaper.spi3d, interpolation: tetrahedral}
        - !<FileTransform> {src: Log2_48_nits_Shaper_to_linear.spi1d, interpolation: linear}
    from_reference: !<GroupTransform>
      children:
        - !<FileTransform> {src: Log2_48_nits_Shaper_to_linear.spi1d, interpolation: linear, direction: inverse}
        - !<FileTransform> {src: Log2_48_nits_Shaper.RRT.Rec.709.spi3d, interpolation: tetrahedral}

  - !<ColorSpace>
    name: Output - sRGB
    family: Output
    bitdepth: 32f
    description: |
      ACES 1.0 Output - sRGB Output Transform

      ACES Transform ID : urn:ampas:aces:transformId:v1.5:ODT.Academy.RGBmonitor_100nits_dim.a1.0.3
    isdata: false
    allocation: uniform
    allocationvars: [0, 1]
    to_reference: !<GroupTransform>
      children:
        - !<FileTransform> {src: InvRRT.sRGB.Log2_48_nits_Shaper.spi3d, interpolation: tetrahedral}
        - !<FileTransform> {src: Log2_48_nits_Shaper_to_linear.spi1d, interpolation: linear}
    from_reference: !<GroupTransform>
      children:
        - !<FileTransform> {src: Log2_48_nits_Shaper_to_linear.spi1d, interpolation: linear, direction: inverse}
        - !<FileTransform> {src: Log2_48_nits_Shaper.RRT.sRGB.spi3d, interpolation: tetrahedral}

  - !<ColorSpace>
    name: Utility - Curve - Rec.1886
    family: Utility
    equalitygroup: Curve - Rec.1886
    bitdepth: 32f
    description: |
      The Curve - Rec.1886 color space
    isdata: false
    allocation: uniform
    allocationvars: [0, 1]
    to_reference: !<FileTransform> {src: linear_to_rec1886.spi1d, interpolation: linear, direction: inverse}

  - !<ColorSpace>
    name: Utility - Curve - Rec. 709
    family: Utility
    equalitygroup: Curve - Rec. 709
    bitdepth: 32f
    description: |
      The Curve - Rec. 709 color space
    isdata: false
    allocation: uniform
    allocationvars: [0, 1]
    to_reference: !<FileTransform> {src: linear_to_rec709.spi1d, interpolation: linear, direction: inverse}

  - !<ColorSpace>
    name: Utility - Curve - sRGB
    family: Utility
    equalitygroup: Curve - sRGB
    bitdepth: 32f
    description: |
      The Curve - sRGB color space
    isdata: false
    allocation: uniform
    allocationvars: [0, 1]
    to_reference: !<FileTransform> {src: linear_to_sRGB.spi1d, interpolation: linear, direction: inverse}

  - !<ColorSpace>
    name: Utility - Linear - Rec.2020
    family: Utility
    equalitygroup: Linear - Rec.2020
    bitdepth: 32f
    description: |
      The Linear - Rec.2020 color space
    isdata: false
    allocation: lg2
    allocationvars: [-8, 5, 0.00390625]
    from_reference: !<GroupTransform>
      children:
        - !<MatrixTransform> {matrix: [0.952552, 0, 9.36786e-05, 0, 0.343966, 0.728166, -0.0721325, 0, 0, 0, 1.00883, 0, 0, 0, 0, 1]}
        - !<MatrixTransform> {matrix: [1.69663, -0.36552, -0.248571, 0, -0.670399, 1.62348, 0.0150382, 0, 0.0206316, -0.0477563, 1.01911, 0, 0, 0, 0, 1]}

  - !<ColorSpace>
    name: Utility - Linear - Rec. 709
    family: Utility
    equalitygroup: Linear - Rec. 709
    bitdepth: 32f
    description: |
      The Linear - Rec. 709 color space
    isdata: false
    allocation: lg2
    allocationvars: [-8, 5, 0.00390625]
    from_reference: !<GroupTransform>
      children:
        - !<MatrixTransform> {matrix: [0.952552, 0, 9.36786e-05, 0, 0.343966, 0.728166, -0.0721325, 0, 0, 0, 1.00883, 0, 0, 0, 0, 1]}
        - !<MatrixTransform> {matrix: [3.2096, -1.55743, -0.495805, 0, -0.970989, 1.88517, 0.0394894, 0, 0.0597193, -0.210104, 1.14312, 0, 0, 0, 0, 1]}

  - !<ColorSpace>
    name: Utility - Linear - sRGB
    family: Utility
    equalitygroup: Linear - sRGB
    bitdepth: 32f
    description: |
      The Linear - sRGB color space
    isdata: false
    allocation: lg2
    allocationvars: [-8, 5, 0.00390625]
    from_reference: !<GroupTransform>
      children:
        - !<MatrixTransform> {matrix: [0.952552, 0, 9.36786e-05, 0, 0.343966, 0.728166, -0.0721325, 0, 0, 0, 1.00883, 0, 0, 0, 0, 1]}
        - !<MatrixTransform> {matrix: [3.2096, -1.55743, -0.495805, 0, -0.970989, 1.88517, 0.0394894, 0, 0.0597193, -0.210104, 1.14312, 0, 0, 0, 0, 1]}

  - !<ColorSpace>
    name: Utility - BT. 1886 - Texture
    family: Utility
    equalitygroup: BT. 1886 - Texture
    bitdepth: 32f
    description: |
      The BT. 1886 - Texture color space
    isdata: false
    allocation: uniform
    allocationvars: [0, 1]
    from_reference: !<GroupTransform>
      children:
        - !<MatrixTransform> {matrix: [0.952552, 0, 9.36786e-05, 0, 0.343966, 0.728166, -0.0721325, 0, 0, 0, 1.00883, 0, 0, 0, 0, 1]}
        - !<MatrixTransform> {matrix: [3.2096, -1.55743, -0.495805, 0, -0.970989, 1.88517, 0.0394894, 0, 0.0597193, -0.210104, 1.14312, 0, 0, 0, 0, 1]}
        - !<FileTransform> {src: linear_to_rec1886.spi1d, interpolation: linear}

  - !<ColorSpace>
    name: Utility - sRGB - Texture
    family: Utility
    equalitygroup: sRGB - Texture
    bitdepth: 32f
    description: |
      The sRGB - Texture color space
    isdata: false
    allocation: uniform
    allocationvars: [0, 1]
    from_reference: !<GroupTransform>
      children:
        - !<MatrixTransform> {matrix: [0.952552, 0, 9.36786e-05, 0, 0.343966, 0.728166, -0.0721325, 0, 0, 0, 1.00883, 0, 0, 0, 0, 1]}
        - !<MatrixTransform> {matrix: [3.2096, -1.55743, -0.495805, 0, -0.970989, 1.88517, 0.0394894, 0, 0.0597193, -0.210104, 1.14312, 0, 0, 0, 0, 1]}
        - !<FileTransform> {src: linear_to_sRGB.spi1d, interpolation: linear}

  - !<ColorSpace>
    name: Utility - Gamma 2.2 - Rec. 709 - Texture
    family: Utility
    equalitygroup: Gamma 2.2 - Rec. 709 - Texture
    bitdepth: 32f
    description: |
      The Gamma 2.2 - Rec. 709 color space for importing certain textures.
    isdata: false
    allocation: uniform
    allocationvars: [0, 1]
    from_reference: !<GroupTransform>
      children:
        - !<MatrixTransform> {matrix: [0.952552, 0, 9.36786e-05, 0, 0.343966, 0.728166, -0.0721325, 0, 0, 0, 1.00883, 0, 0, 0, 0, 1]}
        - !<MatrixTransform> {matrix: [3.2096, -1.55743, -0.495805, 0, -0.970989, 1.88517, 0.0394894, 0, 0.0597193, -0.210104, 1.14312, 0, 0, 0, 0, 1]}
        - !<ExponentTransform> {value: [0.454545, 0.454545, 0.454545, 1]}

  - !<ColorSpace>
    name: Utility - Raw
    family: Utility
    equalitygroup: Raw
    bitdepth: 32f
    description: |
      The Raw color space
    isdata: true
    allocation: uniform
    allocationvars: [0, 1]

  - !<ColorSpace>
    name: Utility - Look - Blue Light Artifact Fix
    family: Utility/Look
    bitdepth: 32f
    description: |
      The ACES Look Transform: Blue Light Artifact Fix

      ACES Transform ID : urn:ampas:aces:transformId:v1.5:LMT.Academy.BlueLightArtifactFix.a1.1.0
    isdata: false
    allocation: lg2
    allocationvars: [-8, 5, 0.00390625]
    to_reference: !<MatrixTransform> {matrix: [0.940437, -0.0183069, 0.0778696, 0, 0.0083787, 0.82866, 0.162961, 0, 0.000547126, -0.000883375, 1.00034, 0, 0, 0, 0, 1], direction: inverse}


### Aliases

  - !<ColorSpace>
    name: sharprgb
    family: Utility/Aliases
    bitdepth: 32f
    isdata: false
    to_reference: !<FileTransform> {src: SharpRGB_to_AP0_CAT16.spimtx}
    allocation: lg2
    allocationvars: [-8, 5, 0.00390625]

  - !<ColorSpace>
    name: aces
    family: Utility/Aliases
    bitdepth: 32f
    description: |
      The Academy Color Encoding System reference color space
    isdata: false
    allocation: lg2
    allocationvars: [-8, 5, 0.00390625]

  - !<ColorSpace>
    name: acescc
    family: Utility/Aliases
    bitdepth: 32f
    description: |
      The ACEScc color space

      ACES Transform ID : ACEScsc.Academy.ACEScc_to_ACES
    isdata: false
    allocation: uniform
    allocationvars: [-0.3584, 1.468]
    to_reference: !<ColorSpaceTransform> {src: ACES - ACEScc, dst: ACES - ACES2065-1}

  - !<ColorSpace>
    name: acescct
    family: Utility/Aliases
    bitdepth: 32f
    description: |
      The ACEScct color space

      ACES Transform ID : ACEScsc.Academy.ACEScct_to_ACES
    isdata: false
    allocation: uniform
    allocationvars: [-0.249136, 1.468]
    to_reference: !<ColorSpaceTransform> {src: ACES - ACEScct, dst: ACES - ACES2065-1}

  - !<ColorSpace>
    name: acescg
    family: Utility/Aliases
    bitdepth: 32f
    description: |
      The ACEScg color space

      ACES Transform ID : ACEScsc.Academy.ACEScg_to_ACES
    isdata: false
    allocation: lg2
    allocationvars: [-8, 5, 0.00390625]
    to_reference: !<ColorSpaceTransform> {src: ACES - ACEScg, dst: ACES - ACES2065-1}

  - !<ColorSpace>
    name: out_rec709
    family: Utility/Aliases
    bitdepth: 32f
    description: |
      ACES 1.0 Output - Rec. 709 Output Transform

      ACES Transform ID : urn:ampas:aces:transformId:v1.5:ODT.Academy.Rec709_100nits_dim.a1.0.3
    isdata: false
    allocation: uniform
    allocationvars: [0, 1]
    to_reference: !<ColorSpaceTransform> {src: Output - Rec. 709, dst: ACES - ACES2065-1}
    from_reference: !<ColorSpaceTransform> {src: ACES - ACES2065-1, dst: Output - Rec. 709}

  - !<ColorSpace>
    name: out_srgb
    family: Utility/Aliases
    bitdepth: 32f
    description: |
      ACES 1.0 Output - sRGB Output Transform

      ACES Transform ID : urn:ampas:aces:transformId:v1.5:ODT.Academy.RGBmonitor_100nits_dim.a1.0.3
    isdata: false
    allocation: uniform
    allocationvars: [0, 1]
    to_reference: !<ColorSpaceTransform> {src: Output - sRGB, dst: ACES - ACES2065-1}
    from_reference: !<ColorSpaceTransform> {src: ACES - ACES2065-1, dst: Output - sRGB}

  - !<ColorSpace>
    name: crv_rec1886
    family: Utility/Aliases
    equalitygroup: Curve - Rec.1886
    bitdepth: 32f
    description: |
      The Curve - Rec.1886 color space
    isdata: false
    allocation: uniform
    allocationvars: [0, 1]
    to_reference: !<ColorSpaceTransform> {src: Utility - Curve - Rec.1886, dst: ACES - ACES2065-1}

  - !<ColorSpace>
    name: crv_rec709
    family: Utility/Aliases
    equalitygroup: Curve - Rec. 709
    bitdepth: 32f
    description: |
      The Curve - Rec. 709 color space
    isdata: false
    allocation: uniform
    allocationvars: [0, 1]
    to_reference: !<ColorSpaceTransform> {src: Utility - Curve - Rec. 709, dst: ACES - ACES2065-1}

  - !<ColorSpace>
    name: crv_srgb
    family: Utility/Aliases
    equalitygroup: Curve - sRGB
    bitdepth: 32f
    description: |
      The Curve - sRGB color space
    isdata: false
    allocation: uniform
    allocationvars: [0, 1]
    to_reference: !<ColorSpaceTransform> {src: Utility - Curve - sRGB, dst: ACES - ACES2065-1}

  - !<ColorSpace>
    name: lin_rec2020
    family: Utility/Aliases
    equalitygroup: Linear - Rec.2020
    bitdepth: 32f
    description: |
      The Linear - Rec.2020 color space
    isdata: false
    allocation: lg2
    allocationvars: [-8, 5, 0.00390625]
    from_reference: !<ColorSpaceTransform> {src: ACES - ACES2065-1, dst: Utility - Linear - Rec.2020}

  - !<ColorSpace>
    name: lin_rec709
    family: Utility/Aliases
    equalitygroup: Linear - Rec. 709
    bitdepth: 32f
    description: |
      The Linear - Rec. 709 color space
    isdata: false
    allocation: lg2
    allocationvars: [-8, 5, 0.00390625]
    from_reference: !<ColorSpaceTransform> {src: ACES - ACES2065-1, dst: Utility - Linear - Rec. 709}

  - !<ColorSpace>
    name: lin_srgb
    family: Utility/Aliases
    equalitygroup: Linear - sRGB
    bitdepth: 32f
    description: |
      The Linear - sRGB color space
    isdata: false
    allocation: lg2
    allocationvars: [-8, 5, 0.00390625]
    from_reference: !<ColorSpaceTransform> {src: ACES - ACES2065-1, dst: Utility - Linear - sRGB}

  - !<ColorSpace>
    name: bt1886_texture
    family: Utility/Aliases
    equalitygroup: BT. 1886 - Texture
    bitdepth: 32f
    description: |
      The BT. 1886 - Texture color space
    isdata: false
    allocation: uniform
    allocationvars: [0, 1]
    from_reference: !<ColorSpaceTransform> {src: ACES - ACES2065-1, dst: Utility - BT. 1886 - Texture}

  - !<ColorSpace>
    name: srgb_texture
    family: Utility/Aliases
    equalitygroup: sRGB - Texture
    bitdepth: 32f
    description: |
      The sRGB - Texture color space
    isdata: false
    allocation: uniform
    allocationvars: [0, 1]
    from_reference: !<ColorSpaceTransform> {src: ACES - ACES2065-1, dst: Utility - sRGB - Texture}

  - !<ColorSpace>
    name: g22_rec709
    family: Utility/Aliases
    equalitygroup: Gamma 2.2 - Rec.709 - Texture
    bitdepth: 32f
    description: |
      The Gamma 2.2 - Rec.709 color space for importing certain textures.
    isdata: false
    allocation: uniform
    allocationvars: [0, 1]
    from_reference: !<ColorSpaceTransform> {src: ACES - ACES2065-1, dst: Utility - Gamma 2.2 - Rec. 709 - Texture}

  - !<ColorSpace>
    name: raw
    family: Utility/Aliases
    equalitygroup: Raw
    bitdepth: 32f
    description: |
      The Raw color space
    isdata: true
    allocation: uniform
    allocationvars: [0, 1]

  - !<ColorSpace>
    name: look_bluelightartifactfix
    family: Utility/Aliases
    bitdepth: 32f
    description: |
      The ACES Look Transform: Blue Light Artifact Fix

      ACES Transform ID : urn:ampas:aces:transformId:v1.5:LMT.Academy.BlueLightArtifactFix.a1.1.0
    isdata: false
    allocation: lg2
    allocationvars: [-8, 5, 0.00390625]
    to_reference: !<ColorSpaceTransform> {src: Utility - Look - Blue Light Artifact Fix, dst: ACES - ACES2065-1}
